X:1
T:KRISTUS  IR  CĒLIES
T:G. F. Handel (1685-1759)
T:teksts: V. Baštiks
T:KRISTUS  IR  CĒLIES
C:G. F. Handel
C:(1685-1759)
Z:teksts: V. Baštiks
%%score { ( 1 2 ) | ( 3 4 ) }
L:1/8
Q:1/4=120
M:4/4
K:E
V:1 treble nm="P1"
V:2 treble 
V:3 bass 
V:4 bass 
V:1
"^Allegro" B4 G3 A | B4 E4 | FG AB A2 G2 | F8 | GA Bc B2 B2 | e4 B4 | A2 GF F3 E | E8 | %8
w: 1. tus ir|cē- lies|sla- * va _ Glā- bē-|jam,|dzī- * vī- * bas un|nā- ves|1. tam _ Val- dnie-|kam.|
w: 2. tus ir|cē- lies|stei- * dzies _ sas- tapt|To,|Viņš _ nāk _ pre- tī|snieg- dams|2. ku _ caur- dur-|to.|
w: 3. tus ir|cē- lies,|at- * pes- * tī- jis|mūs,|un _ mums _ līdz ar|Vi- ņu|3. žam _ dzī- vot|būs.|
 GF GA G2 G2 | F4 E4 | A2 G2 F2 E2 | D8 | ED EF E2 E2 | c4 ^A4 | B2 cB ^A3 B | B8 | B4 G3 A | %17
w: Mī- * lot _ mūs Viņš|cie- ta,|mi- ra Gol- gā-|tā,|1. * les- * tī- bas|spē- kā|nā- vi _ pār- spē-|ja.|Ak- mens ir|
w: Ļau- * jies _ va- dīt|se- vi,|tik- si gais- mā|celts,|2. * ves _ mel- nā|nak- tī|ie- līs _ sau- les|zelts.|Jē- zus kur|
w: Sēk- * las _ grauds, kas|dzi- ļi|ze- mes klē- pī|slīgst,|3. * les _ sil- tos|sta- ros|jau- nā _ stā- dā|dīgst.|Kris- tus no|
 B4 E4 | FG AB A2 G2 | F8 | GA Bc B2 B2 | e4 B4 | A2 GF F3 E | E8 |] %24
w: no- velts,|1. * dis _ līk- smo-|jas,|liels _ un _ svēts šis|brī- nums|aug- šām- * cel- ša-|nās.|
w: val- da,|2. * sa _ at- kāp-|jas,|sir- * dī _ nāk kā|brī- nums|aug- šām- * cel- ša-|nās.|
w: nā- ves|3. * reiz _ mo- di-|nās,|ze- * mi _ pār- šalks|brī- nums|aug- šām- * cel- ša-|nās.|
V:2
 E4 E3 E | E4 B,4 | DE FG F2 E2 | D8 | E2 E2 E2 D2 | E4 E4 | D2 E2 D3 B, | B,8 | ED EF E2 E2 | %9
 D4 C4 | ^B,2 C2 C2 C2 | ^B,8 | C^B, CD C2 E2 | E4 E4 | D2 G2 F2 F2 | F8 | G4 E3 D | E4 B,4 | %18
 DE FG F2 E2 | D8 | E2 E2 E2 D2 | E4 E4 | D2 E2 D3 B, | B,8 |] %24
V:3
 G,4 B,3 A, | G,4 B,4 | B,2 B,2 B,2 B,2 | B,8 | B,2 B,A, B,2 A,2 | B,4 G,4 | A,2 B,2 B,3 G, | G,8 | %8
 B,2 B,2 B,2 B,2 | A,4 G,4 | F,2 G,2 A,2 G,2 | G,8 | G,2 G,2 C2 C2 | C4 C4 | B,2 G,2 C2 C2 | D8 | %16
 E4 B,3 A, | G,4 B,4 | B,2 B,2 B,2 B,2 | [B,,B,]8 | B,2 B,A, B,2 A,2 | B,4 G,4 | A,2 B,C B,3 G, | %23
 G,8 |] %24
V:4
 E,4 G,3 F, | E,4 G,4 | B,2 B,2 D,2 E,2 | B,,8 | E,F, G,A, G,2 F,2 | G,4 G,4 | F,2 E,2 B,,3 E, | %7
 E,8 | E,2 E,2 E,2 E,2 | B,,4 C,4 | D,2 E,2 F,2 C,2 | G,,8 | C,2 C,2 C2 B,2 | ^A,4 F,4 | %14
 G,2 E,2 F,2 F,2 | B,,8 | E,4 E,3 F, | G,4 G,,4 | B,,2 B,,2 D,2 E,2 | x8 | E,F, G,A, G,2 F,2 | %21
 G,4 G,4 | F,2 G,A, B,3 E, | E,8 |] %24

